assets/icons/24px/outline/rectangle-contract-24px.svg

<svg width="24" height="24" fill="none" xmlns="http://www.w3.org/2000/svg"><rect x="3" y="5" width="18" height="14" rx="2" stroke="#fff" stroke-width="2"/><path d="M6 12h4m0 0l-1.5-1.5M10 12l-1.5 1.5M18 12h-4m0 0l1.5-1.5M14 12l1.5 1.5" stroke="#fff" stroke-linecap="round" stroke-linejoin="round"/></svg>

<svg width="24" height="24" viewBox="0 0 24 24" fill="none" xmlns="http://www.w3.org/2000/svg">
<rect x="3" y="5" width="18" height="14" rx="2" stroke="white" stroke-width="2"/>
<path d="M6 12H10M10 12L8.5 10.5M10 12L8.5 13.5M18 12H14M14 12L15.5 10.5M14 12L15.5 13.5" stroke="white" stroke-linecap="round" stroke-linejoin="round"/>
</svg>
